images/icon_skype.svg

<svg width="29" height="29" viewBox="0 0 29 29" fill="none" xmlns="http://www.w3.org/2000/svg">
<path d="M28.1663 17.5776C28.3765 16.6333 28.4852 15.6546 28.4852 14.6504C28.4852 7.1195 22.2938 1.01319 14.6541 1.01319C13.8493 1.01319 13.0591 1.08206 12.2888 1.21256C11.0526 0.445875 9.58994 0 8.02213 0C3.59056 0 0 3.53981 0 7.90975C0 9.36881 0.402375 10.7336 1.102 11.9099C0.918937 12.7944 0.821063 13.7116 0.821063 14.6504C0.821063 22.1832 7.01437 28.2895 14.6522 28.2895C15.5186 28.2895 16.3651 28.2098 17.1861 28.0611C18.3171 28.6593 19.6076 29 20.9797 29C25.4094 29 29 25.4584 29 21.0921C29 19.8288 28.6991 18.6379 28.1663 17.5776ZM21.7482 21.1682C21.1084 22.0618 20.1641 22.7686 18.937 23.2689C17.7244 23.7673 16.2726 24.0211 14.616 24.0211C12.6295 24.0211 10.9638 23.6767 9.66244 22.9952C8.73263 22.5004 7.96775 21.8316 7.38594 21.0014C6.79687 20.1677 6.50144 19.3394 6.50144 18.5382C6.50144 18.0398 6.69537 17.6066 7.07781 17.2532C7.45662 16.8997 7.94238 16.7239 8.52238 16.7239C8.99725 16.7239 9.40687 16.8635 9.74038 17.1408C10.0576 17.4072 10.3313 17.8024 10.5506 18.3081C10.7952 18.8627 11.0617 19.3303 11.3426 19.6946C11.6163 20.0517 12.006 20.3489 12.5044 20.5828C13.0065 20.8148 13.6826 20.9362 14.5127 20.9362C15.6564 20.9362 16.5952 20.6951 17.2985 20.2203C17.9891 19.7581 18.3226 19.1998 18.3226 18.5183C18.3226 17.9818 18.1467 17.5577 17.7897 17.226C17.4127 16.878 16.9161 16.6079 16.3143 16.4213C15.6854 16.2291 14.8317 16.0189 13.7768 15.8014C12.3395 15.4987 11.1197 15.1398 10.1518 14.732C9.16037 14.3151 8.35925 13.7388 7.77562 13.0174C7.18112 12.2833 6.88025 11.3644 6.88025 10.2841C6.88025 9.25462 7.19563 8.32662 7.81913 7.5255C8.43719 6.72981 9.33981 6.10813 10.5052 5.68581C11.6526 5.26713 13.0174 5.05506 14.5634 5.05506C15.7977 5.05506 16.8834 5.19644 17.7915 5.47556C18.7032 5.75469 19.4717 6.13169 20.0753 6.5975C20.6842 7.06875 21.1374 7.56719 21.4201 8.08919C21.7065 8.61481 21.8533 9.13863 21.8533 9.64431C21.8533 10.1319 21.663 10.5759 21.286 10.9602C20.9054 11.3499 20.4269 11.5456 19.865 11.5456C19.3539 11.5456 18.9515 11.4206 18.6742 11.1795C18.415 10.9529 18.1449 10.5995 17.8477 10.0956C17.5033 9.45038 17.0846 8.94106 16.6061 8.58038C16.1403 8.23056 15.3646 8.05656 14.2952 8.05656C13.3056 8.05656 12.4972 8.25231 11.8991 8.64019C11.3227 9.01175 11.0417 9.4395 11.0417 9.947C11.0417 10.2569 11.1324 10.5161 11.3191 10.7391C11.5148 10.9783 11.7921 11.1831 12.1437 11.3571C12.5062 11.5366 12.8814 11.6816 13.2566 11.7831C13.6409 11.8882 14.2843 12.0459 15.1706 12.2471C16.2908 12.4827 17.3184 12.7491 18.2283 13.0373C19.1509 13.3255 19.9447 13.6826 20.5972 14.1013C21.2588 14.5272 21.7826 15.0709 22.156 15.7234C22.5294 16.3814 22.7179 17.1879 22.7179 18.1268C22.7161 19.2488 22.3898 20.2728 21.7482 21.1682Z" fill="#072EFC"/>
</svg>

<svg width="29" height="29" fill="none" xmlns="http://www.w3.org/2000/svg"><path d="M28.166 17.578c.21-.945.32-1.923.32-2.928 0-7.53-6.192-13.637-13.832-13.637-.805 0-1.595.07-2.365.2A8.072 8.072 0 008.022 0C3.591 0 0 3.54 0 7.91a7.79 7.79 0 001.102 4c-.183.884-.28 1.802-.28 2.74 0 7.533 6.192 13.64 13.83 13.64.867 0 1.713-.08 2.534-.229A8.09 8.09 0 0020.98 29c4.43 0 8.02-3.542 8.02-7.908a7.78 7.78 0 00-.834-3.514zm-6.418 3.59c-.64.894-1.584 1.6-2.811 2.1-1.213.5-2.664.753-4.321.753-1.986 0-3.652-.344-4.954-1.026a6.428 6.428 0 01-2.276-1.994c-.59-.833-.885-1.662-.885-2.463 0-.498.194-.931.577-1.285.379-.353.864-.53 1.444-.53.475 0 .885.14 1.218.418.318.266.591.661.81 1.167.245.555.512 1.022.793 1.387.273.357.663.654 1.161.888.503.232 1.179.353 2.009.353 1.143 0 2.082-.24 2.786-.716.69-.462 1.024-1.02 1.024-1.702 0-.536-.176-.96-.533-1.292-.377-.348-.874-.618-1.476-.805a29.306 29.306 0 00-2.537-.62c-1.438-.302-2.657-.661-3.625-1.069-.992-.417-1.793-.993-2.376-1.715-.595-.734-.896-1.653-.896-2.733 0-1.03.316-1.957.94-2.759.617-.795 1.52-1.417 2.685-1.84 1.148-.418 2.512-.63 4.058-.63 1.235 0 2.32.141 3.228.42.912.28 1.68.657 2.284 1.123.61.47 1.062.97 1.345 1.491.286.526.433 1.05.433 1.555 0 .488-.19.932-.567 1.316-.38.39-.86.586-1.421.586-.511 0-.913-.125-1.19-.366-.26-.227-.53-.58-.827-1.084-.345-.646-.763-1.155-1.242-1.516-.466-.35-1.241-.523-2.31-.523-.99 0-1.799.195-2.397.583-.576.372-.857.8-.857 1.307 0 .31.09.57.277.792.196.24.473.444.825.618.362.18.737.325 1.113.426.384.105 1.027.263 1.914.464 1.12.236 2.147.502 3.057.79.923.288 1.717.646 2.37 1.064.66.426 1.185.97 1.558 1.622.373.658.562 1.465.562 2.404a5.134 5.134 0 01-.97 3.041z" fill="#072EFC"/></svg>
